X:1
T:Title
%%score [ ( 1 2 ) ( 3 4 ) ] { ( 5 6 ) | ( 7 8 ) }
L:1/8
Q:1/4=120
M:4/4
K:F
V:1 treble nm="Midi_74"
V:2 treble 
V:3 bass nm="Midi_74"
V:4 bass 
V:5 treble nm="Org."
V:6 treble 
V:7 bass 
V:8 bass 
V:1
 c8 | c4 B4 | B8 || (A6 G2) | F4 B4 | G4 F4 |{F} E8 || G8 | G4 F4 | F8 || (E6 D2) | %11
 C4"^William Henry Havergal\n(1793-1870)" F4 | F4 E4 | F8 |] %14
V:2
 (A6 G2) | F4 F4 | E8 || (F6 E2) | F4 (G2 D2) | C4 C4 | C8 || (E6 D2) | ^C4 D4 | =B,8 || %10
 (C6 =B,2) | C4 D4 | D4 C4 | C8 |] %14
V:3
 C8 | D4 D4 | C8 || C8 | C4 B,4 | B,4 A,4 |{A,} G,8 || G,8 | A,4 A,4 | G,8 || G,8 | G,4 A,4 | %12
 G,4 (G,2 B,2) | A,8 |] %14
V:4
 (F,6 E,2) | D,4 G,4 | C,8 || (F,6 G,2) | A,4 G,4 | E,4 F,4 | C,8 || (C,6 B,,2) | A,,4 D,4 | %9
 G,,8 || (C,6 D,2) | E,4 D,4 | B,,4 C,4 | F,8 |] %14
V:5
 [Cc]8 | c4 B4 | B8 || [FA]6 [EG]2 | F4 B4 | G4 F4 |{F} E8 || G8 | G4 F4 | F8 || E6 D2 | C4 F4 | %12
 F4 E4 | F8 |] %14
V:6
 A6 G2 | [DF]4 [DF]4 | [CE]8 || C8 | C4 [DG]4 | C4 C4 | C8 || E6 D2 | ^C4 D4 | =B,8 || C6 =B,2 | %11
 C4 D4 | D4 C2 B,2 | A,8 |] %14
V:7
 x8 | x8 | x8 || x8 | x4 B,4 | B,4 A,4 |{A,} G,8 || G,8 | A,8 | G,8 || G,8 | G,4 A,4 | G,8 | x8 |] %14
V:8
 F,6 E,2 | D,4 G,4 | C,8 || F,6 G,2 | A,4 G,4 | E,4 F,4 | C,8 || C,6 B,,2 | A,,4 D,4 | G,,8 || %10
 C,6 D,2 | E,4 D,4 | B,,4 C,4 | F,8 |] %14

